X: 28551
T: Murdo MacKenzie Of Torridon
R: jig
M: 6/8
K: Adorian
|:A>ee e3|A>ee deg|GBd dBd|e<gG BAG|
A>ee e3|A>ee dea|gfe deg|edB A2B:|:A>aa a3|
A>aa gea|gfe def|gGd BAG|1 A>aa a3|A>aa gea|
gfe deg|edB A2B:|2 e3 A2e|d<Bd e2a|gfe deg|edB A3||
|:A3 e3|A>ee deg|B3 G3|e<gG BAG|A3 e3|A>ee dea|
gfe deg|1 edBA3:|2 edB A2B|:AaA gAa|AgA aAa|
gfe def|gGd BAG|1 AaA gAa|AgA aAa|gfe deg|edB A2B:|
[2 e3 A2e|d>Bd e2a|gfe deg|edB A3||

